X: 2
T: Old Hag, You Have Killed Me
R: jig
M: 6/8
L: 1/8
K: Dmix
FDD cAA|ded cAG|~A3 ABG|ABA A2G|FDD cAA|ded cAF|~G3 GcA|1 GAG G2E:|2 GAG G2e|||:~f3 gfg|afd cAG|~A3 ABG|ABA A2e|~f3 gfg|afd cAF|~G3 GcA|1 GAG G2e:|2 GAG G2E||


Tune 1359	Setting 14712

